#define cp_width 65
#define cp_height 65
static char cp_bits[] = {
  0x00, 0x00, 0x00, 0x00, 0x00, 0x00, 0x00, 0x00, 0x00, 0x00, 0x00, 0x00, 
  0x00, 0x00, 0x00, 0x00, 0x00, 0x00, 0x00, 0x00, 0x00, 0x00, 0x00, 0x00, 
  0x00, 0x00, 0x00, 0x00, 0x00, 0x00, 0x00, 0x00, 0x00, 0x00, 0x00, 0x00, 
  0x00, 0x00, 0x00, 0x00, 0x00, 0x00, 0x00, 0x00, 0x00, 0x00, 0x00, 0x00, 
  0x00, 0x00, 0x00, 0x00, 0x00, 0x00, 0x00, 0x00, 0x00, 0x00, 0x00, 0x00, 
  0x00, 0x00, 0x00, 0x00, 0x00, 0x00, 0x00, 0x00, 0x00, 0x00, 0x00, 0x00, 
  0x00, 0x00, 0x00, 0x00, 0x00, 0x00, 0x00, 0x00, 0x00, 0x00, 0x00, 0x00, 
  0x00, 0x00, 0x00, 0x00, 0x00, 0x00, 0x00, 0x00, 0x00, 0x00, 0x00, 0x00, 
  0x00, 0x00, 0x00, 0x00, 0x00, 0x00, 0x00, 0x00, 0x00, 0x00, 0x00, 0x00, 
  0x00, 0x00, 0x00, 0x00, 0x00, 0x00, 0x00, 0x00, 0x00, 0x00, 0x00, 0x00, 
  0x00, 0x00, 0x00, 0x00, 0x00, 0x00, 0x00, 0x00, 0x00, 0x00, 0x00, 0x00, 
  0x00, 0x00, 0x00, 0x00, 0x00, 0x00, 0x00, 0x00, 0x00, 0x00, 0x00, 0x00, 
  0x00, 0x00, 0x00, 0x00, 0x00, 0x00, 0x00, 0x00, 0x00, 0x00, 0x00, 0x00, 
  0x00, 0x00, 0x00, 0x00, 0x00, 0x00, 0x00, 0x00, 0x00, 0x00, 0x00, 0x00, 
  0x00, 0x00, 0x00, 0x00, 0x00, 0x00, 0x00, 0x00, 0x00, 0x00, 0x00, 0x00, 
  0x00, 0x00, 0x00, 0x00, 0x00, 0x00, 0x00, 0x00, 0x00, 0x00, 0x00, 0x00, 
  0x00, 0x01, 0x00, 0x00, 0x00, 0x00, 0x00, 0x00, 0x00, 0x80, 0x02, 0x00, 
  0x00, 0x00, 0x00, 0x00, 0x00, 0x00, 0x40, 0x04, 0x00, 0x00, 0x00, 0x00, 
  0x00, 0x00, 0x00, 0x30, 0x18, 0x00, 0x00, 0x00, 0x00, 0x00, 0x00, 0x00, 
  0x08, 0x20, 0x00, 0x00, 0x00, 0x00, 0x00, 0x00, 0x00, 0x04, 0x40, 0x00, 
  0x00, 0x00, 0x00, 0x00, 0x00, 0x00, 0xE3, 0x8F, 0x01, 0x00, 0x00, 0x00, 
  0x00, 0x00, 0x80, 0x18, 0x30, 0x02, 0x00, 0x00, 0x00, 0x00, 0x00, 0x40, 
  0x04, 0x40, 0x04, 0x00, 0x00, 0x00, 0x00, 0x00, 0x30, 0x02, 0x80, 0x18, 
  0x00, 0x00, 0x00, 0x00, 0x00, 0x08, 0x01, 0x00, 0x21, 0x00, 0x00, 0x00, 
  0x00, 0x00, 0x84, 0x01, 0x00, 0x43, 0x00, 0x00, 0x00, 0x00, 0x00, 0x83, 
  0x00, 0x00, 0x82, 0x01, 0x00, 0x00, 0x00, 0x00, 0x81, 0x00, 0x00, 0x02, 
  0x01, 0x00, 0x00, 0x00, 0x00, 0x42, 0x00, 0x00, 0x84, 0x00, 0x00, 0x00, 
  0x00, 0x00, 0x42, 0x00, 0x00, 0x84, 0x00, 0x00, 0x00, 0x00, 0x00, 0x42, 
  0x00, 0x00, 0x84, 0x00, 0x00, 0x00, 0x00, 0x00, 0x44, 0x00, 0x00, 0x44, 
  0x00, 0x00, 0x00, 0x00, 0x00, 0x44, 0x00, 0x00, 0x44, 0x00, 0x00, 0x00, 
  0x00, 0x00, 0x44, 0x00, 0x00, 0x44, 0x00, 0x00, 0x00, 0x00, 0x00, 0x88, 
  0x00, 0x00, 0x22, 0x00, 0x00, 0x00, 0x00, 0x00, 0x88, 0x00, 0x00, 0x22, 
  0x00, 0x00, 0x00, 0x00, 0x00, 0x88, 0x01, 0x00, 0x23, 0x00, 0x00, 0x00, 
  0x00, 0x00, 0x10, 0x01, 0x00, 0x11, 0x00, 0x00, 0x00, 0x00, 0x00, 0x10, 
  0x02, 0x80, 0x10, 0x00, 0x00, 0x00, 0x00, 0x00, 0x10, 0x04, 0x40, 0x10, 
  0x00, 0x00, 0x00, 0x00, 0x00, 0x20, 0x18, 0x30, 0x08, 0x00, 0x00, 0x00, 
  0x00, 0x00, 0x20, 0xE0, 0x0F, 0x08, 0x00, 0x00, 0x00, 0x00, 0x00, 0x20, 
  0x00, 0x00, 0x08, 0x00, 0x00, 0x00, 0x00, 0x00, 0x40, 0x00, 0x00, 0x04, 
  0x00, 0x00, 0x00, 0x00, 0x00, 0xC0, 0xFF, 0xFF, 0x07, 0x00, 0x00, 0x00, 
  0x00, 0x00, 0x00, 0x00, 0x00, 0x00, 0x00, 0x00, 0x00, 0x00, 0x00, 0x00, 
  0x00, 0x00, 0x00, 0x00, 0x00, 0x00, 0x00, 0x00, 0x00, 0x00, 0x00, 0x00, 
  0x00, 0x00, 0x00, 0x00, 0x00, 0x00, 0x00, 0x00, 0x00, 0x00, 0x00, 0x00, 
  0x00, 0x00, 0x00, 0x00, 0x00, 0x00, 0x00, 0x00, 0x00, 0x00, 0x00, 0x00, 
  0x00, 0x00, 0x00, 0x00, 0x00, 0x00, 0x00, 0x00, 0x00, 0x00, 0x00, 0x00, 
  0x00, 0x00, 0x00, 0x00, 0x00, 0x00, 0x00, 0x00, 0x00, 0x00, 0x00, 0x00, 
  0x00, 0x00, 0x00, 0x00, 0x00, 0x00, 0x00, 0x00, 0x00, 0x00, 0x00, 0x00, 
  0x00, 0x00, 0x00, 0x00, 0x00, 0x00, 0x00, 0x00, 0x00, 0x00, 0x00, 0x00, 
  0x00, 0x00, 0x00, 0x00, 0x00, 0x00, 0x00, 0x00, 0x00, 0x00, 0x00, 0x00, 
  0x00, 0x00, 0x00, 0x00, 0x00, 0x00, 0x00, 0x00, 0x00, };
