#define l_cbd_width 65
#define l_cbd_height 65
static char l_cbd_bits[] = {
  0x00, 0x00, 0x00, 0x00, 0x00, 0x00, 0x00, 0x00, 0x00, 0x00, 0x00, 0x00, 
  0x00, 0x00, 0x00, 0x00, 0x00, 0x00, 0x00, 0x00, 0x00, 0x00, 0x00, 0x00, 
  0x00, 0x00, 0x00, 0x00, 0x00, 0x00, 0x00, 0x00, 0x00, 0x00, 0x00, 0x00, 
  0x00, 0x00, 0x00, 0x00, 0x00, 0x00, 0x00, 0x00, 0x00, 0x00, 0x00, 0x00, 
  0x00, 0x00, 0x00, 0x00, 0x00, 0x00, 0x00, 0x00, 0x00, 0x00, 0x00, 0x00, 
  0x00, 0x00, 0x00, 0x00, 0x00, 0x00, 0x00, 0x00, 0x00, 0x00, 0x00, 0x00, 
  0x00, 0x00, 0x00, 0x00, 0x00, 0x00, 0x00, 0x00, 0x00, 0x00, 0x00, 0x00, 
  0x00, 0x00, 0x00, 0x00, 0x00, 0x00, 0x00, 0x00, 0x00, 0x00, 0x00, 0x00, 
  0x00, 0x00, 0x00, 0x00, 0xFC, 0xFF, 0xFF, 0xFF, 0xFF, 0x3F, 0x00, 0x00, 
  0x00, 0x04, 0x00, 0x00, 0x00, 0x00, 0x20, 0x00, 0x00, 0x00, 0x04, 0x00, 
  0x00, 0x00, 0x00, 0x20, 0x00, 0x00, 0x00, 0x04, 0x00, 0x00, 0x00, 0x00, 
  0x20, 0x00, 0x00, 0x00, 0x44, 0x00, 0x00, 0x00, 0x00, 0x22, 0x00, 0x00, 
  0x00, 0x44, 0x00, 0x00, 0x00, 0x00, 0x22, 0x00, 0x00, 0x00, 0x44, 0x00, 
  0x00, 0x00, 0x00, 0x22, 0x00, 0x00, 0x00, 0x44, 0x00, 0x00, 0x00, 0x00, 
  0x22, 0x00, 0x00, 0x00, 0x44, 0x00, 0x00, 0x00, 0x00, 0x22, 0x00, 0x00, 
  0x00, 0x44, 0x00, 0x00, 0x00, 0x00, 0x22, 0x00, 0x00, 0x00, 0x44, 0x00, 
  0x00, 0x00, 0x00, 0x22, 0x00, 0x00, 0x00, 0x44, 0x00, 0x00, 0x00, 0x00, 
  0x22, 0x00, 0x00, 0x00, 0x44, 0x00, 0x00, 0x00, 0x00, 0x22, 0x00, 0x00, 
  0x00, 0x44, 0x00, 0x00, 0x00, 0x00, 0x22, 0x00, 0x00, 0x00, 0x44, 0x00, 
  0x00, 0x00, 0x00, 0x22, 0x00, 0x00, 0x00, 0x44, 0x00, 0x00, 0x00, 0x00, 
  0x22, 0x00, 0x00, 0x00, 0x44, 0x00, 0x00, 0x00, 0x00, 0x22, 0x00, 0x00, 
  0x00, 0x44, 0x00, 0x00, 0x00, 0x00, 0x22, 0x00, 0x00, 0x00, 0x44, 0x00, 
  0x00, 0x00, 0x00, 0x22, 0x00, 0x00, 0x00, 0x44, 0x00, 0x00, 0x00, 0x00, 
  0x22, 0x00, 0x00, 0x00, 0x44, 0x00, 0x00, 0x00, 0x00, 0x22, 0x00, 0x00, 
  0x00, 0x44, 0x00, 0x00, 0x00, 0x00, 0x22, 0x00, 0x00, 0x00, 0x44, 0x00, 
  0x00, 0x00, 0x00, 0x22, 0x00, 0x00, 0x00, 0x44, 0x00, 0x00, 0x00, 0x00, 
  0x22, 0x00, 0x00, 0x00, 0x44, 0x00, 0x00, 0x00, 0x00, 0x22, 0x00, 0x00, 
  0x00, 0x44, 0x00, 0x00, 0x00, 0x00, 0x22, 0x00, 0x00, 0x00, 0x44, 0x00, 
  0x00, 0x00, 0x00, 0x22, 0x00, 0x00, 0x00, 0x44, 0x00, 0x00, 0x00, 0x00, 
  0x22, 0x00, 0x00, 0x00, 0x44, 0x00, 0x00, 0x00, 0x00, 0x22, 0x00, 0x00, 
  0x00, 0x44, 0x00, 0x00, 0x00, 0x00, 0x22, 0x00, 0x00, 0x00, 0x44, 0x00, 
  0x00, 0x00, 0x00, 0x22, 0x00, 0x00, 0x00, 0x44, 0x00, 0x00, 0x00, 0x00, 
  0x22, 0x00, 0x00, 0x00, 0x44, 0x00, 0x00, 0x00, 0x00, 0x22, 0x00, 0x00, 
  0x00, 0x44, 0x00, 0x00, 0x00, 0x00, 0x22, 0x00, 0x00, 0x00, 0x44, 0x00, 
  0x00, 0x00, 0x00, 0x22, 0x00, 0x00, 0x00, 0x44, 0x00, 0x00, 0x00, 0x00, 
  0x22, 0x00, 0x00, 0x00, 0x44, 0x00, 0x00, 0x00, 0x00, 0x22, 0x00, 0x00, 
  0x00, 0x04, 0x00, 0x00, 0x00, 0x00, 0x20, 0x00, 0x00, 0x00, 0x04, 0x00, 
  0x00, 0x00, 0x00, 0x20, 0x00, 0x00, 0x00, 0xFC, 0xFF, 0xFF, 0xFF, 0xFF, 
  0x3F, 0x00, 0x00, 0x00, 0x00, 0x00, 0x00, 0x00, 0x00, 0x00, 0x00, 0x00, 
  0x00, 0x00, 0x00, 0x00, 0x00, 0x00, 0x00, 0x00, 0x00, 0x00, 0x00, 0x00, 
  0x00, 0x00, 0x00, 0x00, 0x00, 0x00, 0x00, 0x00, 0x00, 0x00, 0x00, 0x00, 
  0x00, 0x00, 0x00, 0x00, 0x00, 0x00, 0x00, 0x00, 0x00, 0x00, 0x00, 0x00, 
  0x00, 0x00, 0x00, 0x00, 0x00, 0x00, 0x00, 0x00, 0x00, 0x00, 0x00, 0x00, 
  0x00, 0x00, 0x00, 0x00, 0x00, 0x00, 0x00, 0x00, 0x00, 0x00, 0x00, 0x00, 
  0x00, 0x00, 0x00, 0x00, 0x00, 0x00, 0x00, 0x00, 0x00, 0x00, 0x00, 0x00, 
  0x00, 0x00, 0x00, 0x00, 0x00, 0x00, 0x00, 0x00, 0x00, 0x00, 0x00, 0x00, 
  0x00, 0x00, 0x00, 0x00, 0x00, 0x00, 0x00, 0x00, 0x00, 0x00, 0x00, 0x00, 
  0x00, 0x00, 0x00, 0x00, 0x00, 0x00, 0x00, 0x00, 0x00, 0x00, 0x00, 0x00, 
  0x00, 0x00, 0x00, 0x00, 0x00, 0x00, 0x00, 0x00, 0x00, };
