#define l_cot_width 65
#define l_cot_height 65
static char l_cot_bits[] = {
  0x00, 0x00, 0x00, 0x00, 0x00, 0x00, 0x00, 0x00, 0x00, 0x00, 0x00, 0x00, 
  0x00, 0x00, 0x00, 0x00, 0x00, 0x00, 0x00, 0x00, 0x00, 0x00, 0x00, 0x00, 
  0x00, 0x00, 0x00, 0x00, 0x00, 0x00, 0x00, 0x00, 0x00, 0x00, 0x00, 0x00, 
  0x00, 0x00, 0x00, 0x00, 0x00, 0x00, 0x00, 0x00, 0x00, 0x00, 0x00, 0x00, 
  0x00, 0x00, 0x00, 0x00, 0x00, 0x00, 0x00, 0x00, 0x00, 0x00, 0x00, 0x00, 
  0x00, 0x00, 0x00, 0x00, 0x00, 0x00, 0x00, 0x00, 0x00, 0x00, 0x00, 0x00, 
  0x00, 0x00, 0x00, 0x00, 0x00, 0x00, 0x00, 0x00, 0x00, 0x00, 0x00, 0xC0, 
  0xFF, 0xFF, 0x1F, 0x00, 0x00, 0x00, 0x00, 0x00, 0x20, 0x00, 0x00, 0x20, 
  0x00, 0x00, 0x00, 0x00, 0x00, 0x10, 0xFF, 0xFF, 0x47, 0x00, 0x00, 0x00, 
  0x00, 0x00, 0x08, 0x00, 0x00, 0x80, 0x00, 0x00, 0x00, 0x00, 0x00, 0x04, 
  0x00, 0x00, 0x00, 0x01, 0x00, 0x00, 0x00, 0x00, 0x02, 0x00, 0x00, 0x00, 
  0x02, 0x00, 0x00, 0x00, 0x00, 0x01, 0x00, 0x00, 0x00, 0x04, 0x00, 0x00, 
  0x00, 0x80, 0x00, 0x00, 0x00, 0x00, 0x08, 0x00, 0x00, 0x00, 0x40, 0x00, 
  0x00, 0x00, 0x00, 0x10, 0x00, 0x00, 0x00, 0x20, 0x00, 0x00, 0x00, 0x00, 
  0x20, 0x00, 0x00, 0x00, 0x10, 0x00, 0x00, 0x00, 0x00, 0x40, 0x00, 0x00, 
  0x00, 0x08, 0x00, 0x00, 0x00, 0x00, 0x80, 0x00, 0x00, 0x00, 0x04, 0x00, 
  0x00, 0x00, 0x00, 0x00, 0x01, 0x00, 0x00, 0x02, 0x00, 0x00, 0x00, 0x00, 
  0x00, 0x02, 0x00, 0x00, 0x02, 0x00, 0x00, 0x00, 0x00, 0x00, 0x02, 0x00, 
  0x00, 0x0A, 0x00, 0x00, 0x00, 0x00, 0x80, 0x02, 0x00, 0x00, 0x0A, 0x00, 
  0x00, 0x00, 0x00, 0x80, 0x02, 0x00, 0x00, 0x0A, 0x00, 0x00, 0x00, 0x00, 
  0x80, 0x02, 0x00, 0x00, 0x0A, 0x00, 0x00, 0x00, 0x00, 0x80, 0x02, 0x00, 
  0x00, 0x0A, 0x00, 0x00, 0x00, 0x00, 0x80, 0x02, 0x00, 0x00, 0x0A, 0x00, 
  0x00, 0x00, 0x00, 0x80, 0x02, 0x00, 0x00, 0x0A, 0x00, 0x00, 0x00, 0x00, 
  0x80, 0x02, 0x00, 0x00, 0x0A, 0x00, 0x00, 0x00, 0x00, 0x80, 0x02, 0x00, 
  0x00, 0x0A, 0x00, 0x00, 0x00, 0x00, 0x80, 0x02, 0x00, 0x00, 0x0A, 0x00, 
  0x00, 0x00, 0x00, 0x80, 0x02, 0x00, 0x00, 0x0A, 0x00, 0x00, 0x00, 0x00, 
  0x80, 0x02, 0x00, 0x00, 0x0A, 0x00, 0x00, 0x00, 0x00, 0x80, 0x02, 0x00, 
  0x00, 0x0A, 0x00, 0x00, 0x00, 0x00, 0x80, 0x02, 0x00, 0x00, 0x0A, 0x00, 
  0x00, 0x00, 0x00, 0x80, 0x02, 0x00, 0x00, 0x0A, 0x00, 0x00, 0x00, 0x00, 
  0x80, 0x02, 0x00, 0x00, 0x0A, 0x00, 0x00, 0x00, 0x00, 0x80, 0x02, 0x00, 
  0x00, 0x0A, 0x00, 0x00, 0x00, 0x00, 0x80, 0x02, 0x00, 0x00, 0x0A, 0x00, 
  0x00, 0x00, 0x00, 0x80, 0x02, 0x00, 0x00, 0x0A, 0x00, 0x00, 0x00, 0x00, 
  0x80, 0x02, 0x00, 0x00, 0x02, 0x00, 0x00, 0x00, 0x00, 0x00, 0x02, 0x00, 
  0x00, 0x02, 0x00, 0x00, 0x00, 0x00, 0x00, 0x01, 0x00, 0x00, 0x04, 0x00, 
  0x00, 0x00, 0x00, 0x80, 0x00, 0x00, 0x00, 0x08, 0x00, 0x00, 0x00, 0x00, 
  0x40, 0x00, 0x00, 0x00, 0x10, 0x00, 0x00, 0x00, 0x00, 0x20, 0x00, 0x00, 
  0x00, 0x20, 0x00, 0x00, 0x00, 0x00, 0x10, 0x00, 0x00, 0x00, 0x40, 0x00, 
  0x00, 0x00, 0x00, 0x08, 0x00, 0x00, 0x00, 0x80, 0x00, 0x00, 0x00, 0x00, 
  0x04, 0x00, 0x00, 0x00, 0x00, 0x01, 0x00, 0x00, 0x00, 0x02, 0x00, 0x00, 
  0x00, 0x00, 0x02, 0x00, 0x00, 0x00, 0x01, 0x00, 0x00, 0x00, 0x00, 0x04, 
  0x00, 0x00, 0x80, 0x00, 0x00, 0x00, 0x00, 0x00, 0x08, 0x00, 0x00, 0x40, 
  0x00, 0x00, 0x00, 0x00, 0x00, 0x90, 0xFF, 0xFF, 0x27, 0x00, 0x00, 0x00, 
  0x00, 0x00, 0x20, 0x00, 0x00, 0x10, 0x00, 0x00, 0x00, 0x00, 0x00, 0xC0, 
  0xFF, 0xFF, 0x0F, 0x00, 0x00, 0x00, 0x00, 0x00, 0x00, 0x00, 0x00, 0x00, 
  0x00, 0x00, 0x00, 0x00, 0x00, 0x00, 0x00, 0x00, 0x00, 0x00, 0x00, 0x00, 
  0x00, 0x00, 0x00, 0x00, 0x00, 0x00, 0x00, 0x00, 0x00, 0x00, 0x00, 0x00, 
  0x00, 0x00, 0x00, 0x00, 0x00, 0x00, 0x00, 0x00, 0x00, 0x00, 0x00, 0x00, 
  0x00, 0x00, 0x00, 0x00, 0x00, 0x00, 0x00, 0x00, 0x00, 0x00, 0x00, 0x00, 
  0x00, 0x00, 0x00, 0x00, 0x00, 0x00, 0x00, 0x00, 0x00, };
