#define naphth_width 65
#define naphth_height 65
static char naphth_bits[] = {
  0x00, 0x00, 0x00, 0x00, 0x00, 0x00, 0x00, 0x00, 0x00, 0x00, 0x00, 0x00, 
  0x00, 0x00, 0x00, 0x00, 0x00, 0x00, 0x00, 0x00, 0x00, 0x00, 0x00, 0x00, 
  0x00, 0x00, 0x00, 0x00, 0x00, 0x00, 0x00, 0x00, 0x00, 0x00, 0x00, 0x00, 
  0x00, 0x00, 0x00, 0x00, 0x00, 0x00, 0x00, 0x00, 0x00, 0x00, 0x00, 0x00, 
  0x00, 0x00, 0x00, 0x00, 0x00, 0x00, 0x00, 0x00, 0x00, 0x00, 0x00, 0x00, 
  0x00, 0x00, 0x00, 0x00, 0x00, 0x00, 0x00, 0x00, 0x00, 0x00, 0x00, 0x00, 
  0x00, 0x00, 0x00, 0x00, 0x00, 0x00, 0x00, 0x00, 0x00, 0x00, 0x00, 0x00, 
  0x00, 0x00, 0x00, 0x00, 0x00, 0x00, 0x00, 0x00, 0x00, 0x00, 0x00, 0x00, 
  0x00, 0x00, 0x00, 0x00, 0x00, 0x00, 0x00, 0x00, 0x00, 0x00, 0x00, 0x00, 
  0x00, 0x00, 0x00, 0x00, 0x00, 0x00, 0x00, 0x00, 0x00, 0x00, 0x00, 0x00, 
  0x00, 0x00, 0x00, 0x00, 0x00, 0x00, 0x00, 0x00, 0x00, 0x00, 0x00, 0x00, 
  0x00, 0x00, 0x00, 0x00, 0x00, 0x00, 0x00, 0x00, 0x00, 0x00, 0x00, 0x00, 
  0x00, 0x00, 0x00, 0x00, 0x00, 0x00, 0x00, 0x00, 0x00, 0x00, 0x00, 0x00, 
  0x00, 0x00, 0x00, 0x00, 0x00, 0x00, 0x00, 0x00, 0x00, 0x00, 0x00, 0x00, 
  0x00, 0x00, 0x00, 0x00, 0x00, 0x10, 0x00, 0x00, 0x30, 0x00, 0x00, 0x00, 
  0x00, 0x00, 0x6C, 0x00, 0x00, 0x4C, 0x00, 0x00, 0x00, 0x00, 0x00, 0x83, 
  0x00, 0x00, 0x82, 0x01, 0x00, 0x00, 0x00, 0x80, 0x10, 0x03, 0x80, 0x11, 
  0x02, 0x00, 0x00, 0x00, 0x60, 0x0C, 0x0C, 0x60, 0x0C, 0x0C, 0x00, 0x00, 
  0x00, 0x18, 0x03, 0x10, 0x10, 0x02, 0x10, 0x00, 0x00, 0x00, 0x86, 0x00, 
  0x60, 0x8C, 0x01, 0x60, 0x00, 0x00, 0x80, 0x61, 0x00, 0x80, 0x63, 0x00, 
  0x80, 0x03, 0x00, 0x80, 0x18, 0x00, 0x00, 0x11, 0x00, 0x00, 0x02, 0x00, 
  0x80, 0x04, 0x00, 0x00, 0x09, 0x00, 0x40, 0x02, 0x00, 0x80, 0x00, 0x00, 
  0x00, 0x01, 0x00, 0x40, 0x02, 0x00, 0x80, 0x00, 0x00, 0x00, 0x01, 0x00, 
  0x40, 0x02, 0x00, 0x80, 0x00, 0x00, 0x00, 0x01, 0x00, 0x40, 0x02, 0x00, 
  0x80, 0x00, 0x00, 0x00, 0x01, 0x00, 0x40, 0x02, 0x00, 0x80, 0x00, 0x00, 
  0x00, 0x01, 0x00, 0x40, 0x02, 0x00, 0x80, 0x00, 0x00, 0x00, 0x01, 0x00, 
  0x40, 0x02, 0x00, 0x80, 0x00, 0x00, 0x00, 0x01, 0x00, 0x40, 0x02, 0x00, 
  0x80, 0x00, 0x00, 0x00, 0x01, 0x00, 0x40, 0x02, 0x00, 0x80, 0x00, 0x00, 
  0x00, 0x01, 0x00, 0x40, 0x02, 0x00, 0x80, 0x00, 0x00, 0x00, 0x01, 0x00, 
  0x40, 0x02, 0x00, 0x80, 0x00, 0x00, 0x00, 0x01, 0x00, 0x40, 0x02, 0x00, 
  0x80, 0x0C, 0x00, 0x00, 0x19, 0x00, 0x40, 0x02, 0x00, 0x80, 0x10, 0x00, 
  0x00, 0x21, 0x00, 0x00, 0x02, 0x00, 0x00, 0x63, 0x00, 0xC0, 0xC6, 0x00, 
  0x80, 0x03, 0x00, 0x00, 0x8C, 0x01, 0x20, 0x18, 0x03, 0x40, 0x00, 0x00, 
  0x00, 0x10, 0x06, 0x18, 0x20, 0x0C, 0x30, 0x00, 0x00, 0x00, 0x60, 0x18, 
  0x06, 0xC0, 0x30, 0x0C, 0x00, 0x00, 0x00, 0x80, 0x01, 0x01, 0x00, 0x03, 
  0x02, 0x00, 0x00, 0x00, 0x00, 0xC6, 0x00, 0x00, 0x8C, 0x01, 0x00, 0x00, 
  0x00, 0x00, 0x38, 0x00, 0x00, 0x70, 0x00, 0x00, 0x00, 0x00, 0x00, 0x00, 
  0x00, 0x00, 0x00, 0x00, 0x00, 0x00, 0x00, 0x00, 0x00, 0x00, 0x00, 0x00, 
  0x00, 0x00, 0x00, 0x00, 0x00, 0x00, 0x00, 0x00, 0x00, 0x00, 0x00, 0x00, 
  0x00, 0x00, 0x00, 0x00, 0x00, 0x00, 0x00, 0x00, 0x00, 0x00, 0x00, 0x00, 
  0x00, 0x00, 0x00, 0x00, 0x00, 0x00, 0x00, 0x00, 0x00, 0x00, 0x00, 0x00, 
  0x00, 0x00, 0x00, 0x00, 0x00, 0x00, 0x00, 0x00, 0x00, 0x00, 0x00, 0x00, 
  0x00, 0x00, 0x00, 0x00, 0x00, 0x00, 0x00, 0x00, 0x00, 0x00, 0x00, 0x00, 
  0x00, 0x00, 0x00, 0x00, 0x00, 0x00, 0x00, 0x00, 0x00, 0x00, 0x00, 0x00, 
  0x00, 0x00, 0x00, 0x00, 0x00, 0x00, 0x00, 0x00, 0x00, 0x00, 0x00, 0x00, 
  0x00, 0x00, 0x00, 0x00, 0x00, 0x00, 0x00, 0x00, 0x00, 0x00, 0x00, 0x00, 
  0x00, 0x00, 0x00, 0x00, 0x00, 0x00, 0x00, 0x00, 0x00, 0x00, 0x00, 0x00, 
  0x00, 0x00, 0x00, 0x00, 0x00, 0x00, 0x00, 0x00, 0x00, 0x00, 0x00, 0x00, 
  0x00, 0x00, 0x00, 0x00, 0x00, 0x00, 0x00, 0x00, 0x00, };
